src/img/icon-mail.svg

<svg width="20" height="16" viewBox="0 0 20 16" fill="none" xmlns="http://www.w3.org/2000/svg">
<path fill-rule="evenodd" clip-rule="evenodd" d="M20 8C20 9.09971 19.9577 10.1943 19.8755 11.275C19.817 12.0441 19.7878 12.4287 19.5975 12.8392C19.4498 13.158 19.1385 13.5487 18.8607 13.764C18.5031 14.0412 18.1548 14.1494 17.4581 14.3658C15.0745 15.1064 12.5773 15.5 10 15.5C7.43381 15.5 4.94711 15.1098 2.57287 14.382C1.86372 14.1647 1.50915 14.056 1.14968 13.779C0.868418 13.5622 0.558664 13.1751 0.408902 12.8531C0.217503 12.4417 0.187413 12.0478 0.127233 11.26C0.0455934 10.1913 0 9.10561 0 8C0 6.88673 0.0420249 5.79868 0.123638 4.72415C0.182508 3.94905 0.211943 3.56151 0.403118 3.14999C0.551911 2.82971 0.86371 2.4396 1.14333 2.22388C1.50259 1.94672 1.85446 1.83864 2.55819 1.62248C4.93685 0.891854 7.42851 0.5 10 0.5C12.5836 0.5 15.0865 0.895542 17.4753 1.63953C18.1654 1.85446 18.5105 1.96193 18.8679 2.2393C19.1437 2.45333 19.4574 2.84756 19.604 3.16437C19.794 3.57494 19.8225 3.95207 19.8794 4.70633C19.9615 5.79308 20 6.89397 20 8ZM18.75 8C18.75 9.06774 18.7089 10.1308 18.6291 11.1803C18.5659 12.0117 18.5398 12.1488 18.4634 12.3136C18.4508 12.3407 18.4336 12.3714 18.4131 12.4041L14.3215 8.3125L18.5662 4.06777C18.5864 4.22257 18.6063 4.4473 18.633 4.80047C18.7125 5.85345 18.75 6.92284 18.75 8ZM17.0872 13.1721C17.1791 13.1436 17.2614 13.1178 17.3354 13.0942L13.4376 9.19638L13.4153 9.21864C12.5949 10.0391 11.4821 10.5 10.3217 10.5H9.67835C8.51803 10.5 7.40523 10.0391 6.58475 9.21864L6.5625 9.19638L2.65889 13.1C2.74125 13.1259 2.8341 13.1547 2.93919 13.1869C5.1984 13.8794 7.56175 14.25 10 14.25C12.4488 14.25 14.821 13.8762 17.0872 13.1721ZM1.58572 12.4054C1.56835 12.377 1.55356 12.3502 1.54229 12.3259C1.46589 12.1617 1.43882 12.0185 1.3736 11.1648C1.29417 10.125 1.25 9.07118 1.25 8C1.25 6.91839 1.29082 5.86192 1.37005 4.81881C1.39719 4.46144 1.41756 4.23118 1.43794 4.07182L5.67862 8.3125L1.58572 12.4054ZM17.8017 3.06453C17.6626 3.01047 17.4532 2.94185 17.1036 2.83298C14.8325 2.12563 12.4547 1.75 10 1.75C7.55673 1.75 5.18866 2.12215 2.92521 2.81739C2.55157 2.93215 2.3342 3.00272 2.19225 3.05836L7.46864 8.33475C8.05469 8.92081 8.84955 9.25005 9.67835 9.25005H10.3217C11.1505 9.25005 11.9454 8.92081 12.5315 8.33476L17.8017 3.06453Z" fill="black"/>
</svg>

<svg width="20" height="16" viewBox="0 0 20 16" fill="none" xmlns="http://www.w3.org/2000/svg"><path fill-rule="evenodd" clip-rule="evenodd" d="M20 8c0 1.1-.042 2.194-.125 3.275-.058.77-.087 1.154-.277 1.564-.148.319-.46.71-.737.925-.358.277-.706.385-1.403.602A25.059 25.059 0 0110 15.5c-2.566 0-5.053-.39-7.427-1.118-.71-.217-1.064-.326-1.423-.603a2.815 2.815 0 01-.741-.926c-.191-.411-.222-.805-.282-1.593a42.75 42.75 0 01-.003-6.536c.059-.775.088-1.162.28-1.574.148-.32.46-.71.74-.926.359-.277.71-.385 1.414-.602A25.272 25.272 0 0110 .5c2.584 0 5.086.396 7.475 1.14.69.214 1.035.322 1.393.6.276.213.59.608.736.924.19.41.219.788.275 1.542C19.961 5.793 20 6.894 20 8zm-1.25 0c0 1.068-.041 2.13-.12 3.18-.064.832-.09.969-.167 1.134a.851.851 0 01-.05.09l-4.091-4.091 4.244-4.245c.02.155.04.38.067.732A42.55 42.55 0 0118.75 8zm-1.663 5.172l.248-.078-3.897-3.898-.023.023a4.375 4.375 0 01-3.093 1.281h-.644a4.37 4.37 0 01-3.093-1.281l-.022-.023L2.659 13.1l.28.087A24.02 24.02 0 0010 14.25a23.81 23.81 0 007.087-1.078zm-15.501-.767a.806.806 0 01-.044-.08c-.076-.163-.103-.306-.168-1.16a41.502 41.502 0 01-.004-6.346c.027-.358.048-.588.068-.747l4.24 4.24-4.092 4.093zm16.216-9.34A23.811 23.811 0 0010 1.75a24.022 24.022 0 00-7.808 1.308L7.47 8.335c.586.586 1.38.915 2.21.915h.643c.829 0 1.623-.33 2.21-.915l5.27-5.27z" fill="#000"/></svg>
